X:1
T:Nel Cammino
T:Nel Cammino
T:Francesca Caccini
T:(Canzonetta)
T:Source : Primo libro delle Musische a 1 e voci---Firenze---Z.Pignoni---1618. Editor : André Vierendeels (09/06/15). 
T:Notes : Original clefs : C1, F4 Figures in BC are notated in original print 
C:Francesca Caccini
%%score 1 2
L:1/8
Q:1/4=120
M:4/4
K:C
V:1 treble nm="Soprano" snm="S"
V:2 bass nm="BC" snm="BC"
V:1
 z2 AB c4- | c2 _B>A A2 B<c | AcBA B>c d2- | d2 G2 z2 G>G | AB c/d/c/c/4B/4 c/B<Bc/d | B4 z2 B2 | %6
w: Nel Cam- mi-|* no'as- pro, et er- *|to di que- sta val- * *|* le, det- ta|mor- tal _ _ _ _ _ vi- * * * *|ta, soc-|
 ^c>d e4 A2 | z2 A2 B>c d2- | dc B>A B4- | B z/ E/ ^F>G A>B A>B | c/B/c/A/ B/c/B/c/ d3 G/G/ | %11
w: cor- * * ri,|soc- cor- * *|* ri'al po- poi tuo|_ por- * * * * * *|* * * * * * * * * gi- li'a-|
 A4 A2 z d | B2 B2 c>d e>B | c4 ^c2 z E | ^F>G A4 A2 | A8 | G8 | z2 c2 c>d e2- | edcB c>^G A>B | %19
w: i- ta, tu|Du- ce _ _ _ Pa-|sto- re u-|mil _ _ Gual-|ber-|to|tu ci'hai _ _|_ del pa- ra- di- so'il Cal- le'a-|
 B8 | A8 | z2 ^c4 B>A | A6 G/G/G/F/4E/4 | ^F/D/4E/4F/G/ A/B/c/B/4c/4 d3 G | G4 z2 c2 | G2 A2 B4 | %26
w: per-|to,|ma se tua|san- * * * * *|* * * * * * * * * * * ta|man non|ci so- stie-|
 B4 z2 B2 | ^F4 z2 A2- | A2 G>F F>G A2- |"^6" A2 E2 z2 c2 | ^G4 z2 B2- | B2 AG G2- G>^F | %32
w: ne, ca-|drem mi-|* se- ri no- * *|* i, ca-|drem mi-|* se- ri no- * *|
 E4 z2 B2- | B2 ^FF G3 ^G | A/E/^F/G/ A/B/c/4B/4B/4A/4 A2 AA | d6 c>B | e6 z ^G | A6 B2 | B8 | A8 | %40
w: i, e|_ se co- pre- ghi|tuo- * * * * * * * * * i non c'im-|pe- tri pie-|ta, dal|som- mo|be-|ne,|
 z2 c4 ^GG | ^G3 A B3 c/d/ | B2 EE A4- | A2 G>^F B4 | z2 GG c4- | c2 B>A d4- | %46
w: e ce ci-|pre- ghi tuo- * *|i nin c'im- pe-|* tri pie- ta,|non c'im- pre-|* ghi pie- ta,|
 d z/ c/ B/A/B/c/ B/A/G/^F/ G/E/F/4D/4E/4F/4 | E/F/G/F/ G/E/F/G/ A/B/A/B/ c/A/F/4G/4A/4E/4 | %48
w: _ pie- * * * * * * * * * * * * * *||
 F/D/4E/4F/G/ A/B/c/d/ e2 z A | B>c d4 c>B | A4 A3 B | B8 | A8 |] %53
w: * * * * * * * * * ta dal|som- * * * *|* * mo|be-|ne.|
V:2
"^-natural" A,,8 |"^6" E,4 F,4 | F,4 D,4 | B,,4 C,4 |"^-natural""^6#" C, ^G,,2 G,, A,,2 A,,2 | %5
 E,,4 E,4 | E,4 ^C,4 | D,4 D,4 | ^F,4 G,2 F,2 |"^-natural" E,2 D,2 C,2 B,,2 | %10
"^-natural""^6""^6#" A,,4 B,,2 E,2 | D,4 D,4 | G,,4 E,4 | A,,8 |"^#" A,,4 ^C,4 | D,8 | G,,8 | C,8 | %18
"^-natural" E,4 A,,4 | E,8 | A,,8 | A,,4 A,,4 | A,2 G,2 ^F,2 E,2 | D,2 C,2 B,,4 | C,4 C,4 | %25
 B,,2 A,,2 G,,4 | G,,4 G,,4 |"^-natural" D,4 D,4 |"^11" _B,,4 A,,4 |"^#10""^-natural" A,,4 A,,4 | %30
"^-natural" E,4 E,4 |"^10#""^11" C,4 B,,2 B,,2 |"^11""^10" B,,4 B,,4 |"^7" B,,4 E,2 E,2 | %34
"^-natural" A,,4 D,4- | D,2 D,D, G,4 |"^6" E,2 D,C, F,4 | F,2 E,D, ^C,2 D,2 | E,8 | A,,8 | %40
 A,,4 E,4 |"^6""^11""^#10" E,2 C,2 B,,2 B,,2 |"^#" E,,4 ^C,2 A,,A,, |"^6" D,4 B,,2 A,,G,, | %44
 C,6 C,C, | F,6 E,D, |"^-natural""^6" E,4 B,,4 | C,4 F,4 |"^-natural" F,2 E,D, ^C,2 D,2 | %49
"^-natural" D,>E, F,>G, A,2 A,,2 | C,2 D,E, F,2 ^C,2 | E,,8 | A,,8 |] %53

